app/dist/common/images/china-publishing-and-media.svg

<svg height="18" viewBox="0 0 18 18" width="18" xmlns="http://www.w3.org/2000/svg"><path d="m0 0h18v18h-18z" fill="#f0f3fa"/><path d="m14 9a5 5 0 1 1 -10 0 5 5 0 0 1 10 0zm-2.5-1.56v1.96l.94-.94v-1.96h-1.91l-.9.83v-1.77l-.94.95v.93h-1.09l-.9.94h2l.93-.85v-.1h1.88zm-3.12 3.23v1.77l.93-.95v-.93h1.08l.92-.94h-1.93l-1 .94h-1.88v-1.96l-.94.94v1.97h1.91l.9-.83z" fill="#004497"/></svg>

<!-- by TradingView --><svg width="18" height="18" viewBox="0 0 18 18" xmlns="http://www.w3.org/2000/svg"><path fill="#F0F3FA" d="M0 0h18v18H0z"/><path d="M14 9A5 5 0 1 1 4 9a5 5 0 0 1 10 0Zm-2.5-1.56V9.4l.94-.94V6.5h-1.91l-.9.83V5.56l-.94.95v.93H7.6l-.9.94H8.7l.93-.85v-.1h1.88Zm-3.12 3.23v1.77l.93-.95v-.93h1.08l.92-.94H9.38l-1 .94H6.5V8.6l-.94.94v1.97h1.91l.9-.83Z" fill="#004497"/></svg>
